src/icons/svgs/24/meh.svg

<svg width="24" height="24" viewBox="0 0 24 24" fill="none" xmlns="http://www.w3.org/2000/svg">
<path d="M15.4375 14.5H8.52734C8.01172 14.5 7.59062 14.9199 7.59062 15.4375C7.59062 15.9551 8.01172 16.375 8.52734 16.375H15.4062C15.9219 16.375 16.343 15.9551 16.343 15.4375C16.343 14.9199 15.9531 14.5 15.4375 14.5ZM8.83984 11.375C9.53516 11.375 10.0906 10.8184 10.0906 10.125C10.0906 9.43164 9.53516 8.875 8.83984 8.875C8.14922 8.875 7.59023 9.43164 7.59023 10.125C7.59023 10.8184 8.18359 11.375 8.83984 11.375ZM15.125 8.875C14.4297 8.875 13.8742 9.43164 13.8742 10.125C13.8742 10.8184 14.4297 11.375 15.125 11.375C15.8156 11.375 16.3746 10.8184 16.3746 10.125C16.3746 9.43164 15.8164 8.875 15.125 8.875ZM12 2C6.47656 2 2 6.47656 2 12C2 17.5234 6.47656 22 12 22C17.5234 22 22 17.5234 22 12C22 6.47656 17.5234 2 12 2ZM12 20.125C7.51953 20.125 3.875 16.4801 3.875 12C3.875 7.51992 7.51953 3.875 12 3.875C16.4805 3.875 20.125 7.51992 20.125 12C20.125 16.4801 16.4805 20.125 12 20.125Z" fill="black"/>
</svg>

<svg width="24" height="24" viewBox="0 0 24 24" xmlns="http://www.w3.org/2000/svg">
    <path d="M15.438 14.5h-6.91a.938.938 0 0 0 0 1.875h6.878c.516 0 .937-.42.937-.938 0-.517-.39-.937-.905-.937zM8.84 11.375c.695 0 1.25-.557 1.25-1.25s-.555-1.25-1.25-1.25c-.69 0-1.25.557-1.25 1.25s.594 1.25 1.25 1.25zm6.285-2.5c-.695 0-1.25.557-1.25 1.25s.555 1.25 1.25 1.25c.69 0 1.25-.557 1.25-1.25s-.559-1.25-1.25-1.25zM12 2C6.477 2 2 6.477 2 12s4.477 10 10 10 10-4.477 10-10S17.523 2 12 2zm0 18.125c-4.48 0-8.125-3.645-8.125-8.125S7.52 3.875 12 3.875 20.125 7.52 20.125 12 16.48 20.125 12 20.125z"/>
</svg>
